gilbertguide/assets/images/item_9796.svg

<?xml version="1.0" standalone="no"?><!DOCTYPE svg PUBLIC "-//W3C//DTD SVG 1.1//EN" "http://www.w3.org/Graphics/SVG/1.1/DTD/svg11.dtd"><svg xmlns="http://www.w3.org/2000/svg" version="1.1" width="195.5px" height="54px" viewBox="0 0 195.5 54"><desc>Home</desc><defs/><g id="Polygon11577"><path d="m43.5 19.2l0 4.2l4 0l0-4.2l2.5 0l0 10.8l-2.5 0l0-4.5l-4 0l0 4.5l-2.4 0l0-10.8l2.4 0zm16.2 6.8c0 2.9-2.1 4.2-4.1 4.2c-2.3 0-4.1-1.5-4.1-4.1c0-2.5 1.7-4.1 4.2-4.1c2.4 0 4 1.6 4 4zm-5.7.1c0 1.3.6 2.3 1.6 2.3c1 0 1.6-.9 1.6-2.3c0-1.2-.5-2.4-1.6-2.4c-1.1 0-1.6 1.2-1.6 2.4zm7.2-1.4c0-1 0-1.8-.1-2.5c.02-.02 2.1 0 2.1 0l.1 1c0 0 .03.03 0 0c.4-.5 1.1-1.2 2.4-1.2c1 0 1.8.5 2.1 1.3c0 0 .1 0 .1 0c.3-.4.6-.7 1-.9c.4-.3.9-.4 1.5-.4c1.5 0 2.6 1 2.6 3.4c.02-.01 0 4.6 0 4.6l-2.3 0c0 0-.04-4.26 0-4.3c0-1.1-.4-1.7-1.2-1.7c-.6 0-1 .3-1.1.8c-.1.2-.1.4-.1.6c-.01.02 0 4.6 0 4.6l-2.4 0c0 0 .02-4.4 0-4.4c0-1-.3-1.6-1.1-1.6c-.6 0-1 .4-1.2.8c0 .2 0 .4 0 .6c-.05.04 0 4.6 0 4.6l-2.4 0c0 0-.02-5.33 0-5.3zm15.6 2.2c.1 1 1.1 1.5 2.2 1.5c.9 0 1.5-.2 2.2-.4c0 0 .3 1.7.3 1.7c-.8.3-1.8.5-2.8.5c-2.7 0-4.2-1.6-4.2-4c0-2 1.2-4.2 3.9-4.2c2.6 0 3.5 2 3.5 3.9c0 .4 0 .8 0 1c0 0-5.1 0-5.1 0zm2.9-1.7c0-.6-.3-1.6-1.4-1.6c-1 0-1.4 1-1.5 1.6c0 0 2.9 0 2.9 0z" stroke="none" fill="#fff"/></g></svg>

<?xml version="1.0" standalone="no"?><!DOCTYPE svg PUBLIC "-//W3C//DTD SVG 1.1//EN" "http://www.w3.org/Graphics/SVG/1.1/DTD/svg11.dtd"><svg xmlns="http://www.w3.org/2000/svg" version="1.1" width="219.4px" height="54px" viewBox="0 0 219.4 54">  <desc>Home</desc>  <defs/>  <g id="Polygon11459">    <path d="M 43.5 19.2 L 43.5 23.4 L 47.5 23.4 L 47.5 19.2 L 50 19.2 L 50 30 L 47.5 30 L 47.5 25.5 L 43.5 25.5 L 43.5 30 L 41.1 30 L 41.1 19.2 L 43.5 19.2 Z M 59.7 26 C 59.7 28.9 57.6 30.2 55.6 30.2 C 53.3 30.2 51.5 28.7 51.5 26.1 C 51.5 23.6 53.2 22 55.7 22 C 58.1 22 59.7 23.6 59.7 26 Z M 54 26.1 C 54 27.4 54.6 28.4 55.6 28.4 C 56.6 28.4 57.2 27.5 57.2 26.1 C 57.2 24.9 56.7 23.7 55.6 23.7 C 54.5 23.7 54 24.9 54 26.1 Z M 61.2 24.7 C 61.2 23.7 61.2 22.9 61.1 22.2 C 61.12 22.18 63.2 22.2 63.2 22.2 L 63.3 23.2 C 63.3 23.2 63.33 23.23 63.3 23.2 C 63.7 22.7 64.4 22 65.7 22 C 66.7 22 67.5 22.5 67.8 23.3 C 67.8 23.3 67.9 23.3 67.9 23.3 C 68.2 22.9 68.5 22.6 68.9 22.4 C 69.3 22.1 69.8 22 70.4 22 C 71.9 22 73 23 73 25.4 C 73.02 25.39 73 30 73 30 L 70.7 30 C 70.7 30 70.66 25.74 70.7 25.7 C 70.7 24.6 70.3 24 69.5 24 C 68.9 24 68.5 24.3 68.4 24.8 C 68.3 25 68.3 25.2 68.3 25.4 C 68.29 25.42 68.3 30 68.3 30 L 65.9 30 C 65.9 30 65.92 25.6 65.9 25.6 C 65.9 24.6 65.6 24 64.8 24 C 64.2 24 63.8 24.4 63.6 24.8 C 63.6 25 63.6 25.2 63.6 25.4 C 63.55 25.44 63.6 30 63.6 30 L 61.2 30 C 61.2 30 61.18 24.67 61.2 24.7 Z M 76.8 26.9 C 76.9 27.9 77.9 28.4 79 28.4 C 79.9 28.4 80.5 28.2 81.2 28 C 81.2 28 81.5 29.7 81.5 29.7 C 80.7 30 79.7 30.2 78.7 30.2 C 76 30.2 74.5 28.6 74.5 26.2 C 74.5 24.2 75.7 22 78.4 22 C 81 22 81.9 24 81.9 25.9 C 81.9 26.3 81.9 26.7 81.9 26.9 C 81.9 26.9 76.8 26.9 76.8 26.9 Z M 79.7 25.2 C 79.7 24.6 79.4 23.6 78.3 23.6 C 77.3 23.6 76.9 24.6 76.8 25.2 C 76.8 25.2 79.7 25.2 79.7 25.2 Z " stroke="none" fill="#fff"/>  </g></svg>
